X: 1
T: Forgotten Daze
M: 6/8
L: 1/8
R: jig
K: Gmaj
|:Bcd|e2 d eg(G|G2) D GAB|B2 A A2 G|ABA Bcd|
e2 d eg(G|G2) D GAB|B2 A GAB|E3 :|
| Bcd|e2 f ge(a|a2) f g2 b|age e2 d|B2 A Bcd|
e2 f ge(a|a2) f g2 b|age e2 d|e3 Bcd|
e2 f ge(a|a2) f g2 b|age e2 d|B2 A Bcd|
e/2f/2ge age|bag eag|edB d2 B|A3z3|
